X:1
T:Sancta et immaculata
T:Orlando di Lasso
T:Source : Magnum opus musicum (1604)---München---First print A.Berg---1575. Editor : André Vierendeels (17/04/15).
T:Notes : Original clefs : G2, C3, F3 Original note values have been halved Editorial accidentals above the staff Square bracket indicates ligature Music collected by Ferdinando and Rodolpho di Lasso  
T:Sancta et immaculata
C:Orlando di Lasso
%%score [ 1 [ 2 3 ] ]
L:1/8
Q:1/4=90
M:2/2
K:C
V:1 treble nm="Cantus" snm="C"
V:2 treble-8 nm="Tenor 1" snm="T 1"
V:3 treble-8 nm="Tenor 2" snm="T 2"
V:1
 z4 d4- | d4 G4 | z2 c4 A2 | c3 B/A/ B2 c2 | A2 GA Bc dA | B2 c3 B/A/ B2 | cd ec de A2- | %7
w: San-|* cta|et im-|ma- * * * cu-|la- ta _ _ _ _ _|_ vir- * * *|gi- * * * * * *|
 A2 A2 d4 | z8 | z4 g4- | g4 c4 | z2 f4 d2 | c3 B/A/ B2 c2 | A2 G2 z4 | z4 z2 e2- | ef g2 dc BA | %16
w: * ni- tas,||san-|* cta|et im-|ma- * * * cu-|la- ta|vir-|* * * gi- * * *|
 G3 A _BA d2- | d2 c2 d4 | z2 c4 B2- | B2 A2 B3 B | c4 d4 | c2 B2 A3 A | B8 | z8 | z4 z2 e2 | %25
w: |* ni- tas,|qui- bus|_ te lau- di-|bus ef-|fe- ram ne- sci-|o,||qui-|
 c2 c2 f3 e | dc BA G4 | c4 z2 d2 | B2 B2 e3 d | cB A2 G4 | z2 c2 A2 A2 | dc BA B2 e2 | %32
w: a quem coe- *||li, qui-|a quem coe- *|* * * li,|qui- a quem|coe- * * * * li|
 g3 f/e/ d3 e | fe g4 G2 | c2 A2 B3 c | A2 A2 G2 G2- | G2 G2 A2 B2 | c2 d4 d2 | e2 f2 g2 G2 | %39
w: ca- * * * *|* * * pe-|re non po- *|* te- rant, tu-|* o gre- mi-|o, tu- o|gre- mi- o con-|
 _B4 A4 | G4 z2 c2- | c2 d2 e2 f2 | gf ed e2 A2 | G2 c3 B/A/ B2 | A2 c2 d2 e2- | e2 f2 g2 c2- | %46
w: tu- li-|sti, tu-|* o gre- mi-|o _ _ _ _ con-|tu- li- * * *|sti, tu- o gre-|* mi- o con-|
 cB BA/G/ A2 A2 | cB e2 A4 | z4 z2 G2- | G2 A2 B2 c2 | d2 G2 d2 g2- | gf e2 d2 A2- | A2 B2 c2 d2 | %53
w: * * * * * * tu-|li- * * sti,|tu-|* o gre- mi-|o con- tu- li-|* * * sti, tu-|* o gre- mi-|
 e3 d c2 A2 | f2 e3 d d2- |"^#" dc/B/ c2 d2 f2- | fe dc _B2 A2- | A2 G3 F/E/ ^F2 | !fermata!G8 |] %59
w: o _ _ con|tu- li- * *|* * * * sti, con-|* * * * * tu-|* li- * * *|sti.|
V:2
 d8 | G4 z2 c2- | c2 A2 f3 e/d/ | e2 f2 d2 c2- | cd ef g3 f/e/ | d2 e2 d3 d | e2 g4 c2 | f6 d2 | %8
w: San-|cta et|_ im- ma- * *|* cu- la- ta|_ _ _ _ _ _ _|* vir- gi- ni-|tas, et im-|ma- cu-|
 f3 e/d/ e2 f2 | d2 cd ec d2 | e2 e4 A2 | A8 | z2 e4 A2 | c6 A2 | c3 B/A/ B2 c2 | A2 GA Bc d2- | %16
w: la- * * * te|vir- gi- * * * *|* ni- *|tas,|san- cta|et im-|ma- * * * cu-|la- ta _ _ _ _|
 d2 e2 f3 e/d/ | f2 e2 d4 | f4 e4 | d2 d3 d e2- | e2 f4 g2 |"^#" a2 g4 f2 | g4 z2 g2 | e2 e2 a3 g | %24
w: _ vir- gi- * *|* ni- tas,|qui- bus|te lau- di- bus|_ ef- fe-|ram ne- sci-|o, qui-|a quem coe- *|
 fe d2 c4 | z2 f2 d2 d2 | g3 f ed cB | A4 A2 f2 | d2 d2 g3 f | ed cd e4 | e4 z2 f2 | d2 d2 g3 f | %32
w: * * * li,|qui- a quem|coe- * * * * *|* li, qui-|a quem coe- *||li, qui-|a quem coe- *|
 ed c4 B2 | c2 d2 e2 e2- | e2 f3 e e2- | e2 d2 e4 | c6 d2 | e2 f2 g4 | z2 c2 d2 e2 | %39
w: * * li ca-|pe- re non po-||* te- rant|tu- o|gre- mi- o,|tu- o gre-|
 f2 g3 f/e/ f2 | d2 e3 f e2 | a8 | e2 g4 f2 | e2 A2 z2 d2- | d2 e2 f2 g2 | a4 z2 a2 | %46
w: mi- o _ _ _|con- tu- * *|li-|sti, con- tu-|li- sti, tu-|* o gre- mi-|o non-|
 d2 g3 f/e/ f2 | e2 c4 c2 | d2 e2 f2 d2 | e3 d/c/ d2 f2- | f2 e2 z2 d2 | e2 g3 f/e/ f2 | %52
w: tu- li- * * *|sti, tu- o|gre- mi- o con-|tu- * * * li-|* sti, con-|tu- li- * * *|
 d2 d2 e2 f2 | g2 a3 e fg | af g2 a2 g2 | e4 f2 a2- | ag fe d2 c2 | _B4 A4 | !fermata!G8 |] %59
w: sti, tu- o gre-|mi- o _ _ _|_ _ _ con- tu-|li- sti, con-|* * * * * tu-|li- *|sti.|
V:3
 z8 | z8 | z8 | z8 | z8 | G8 | C4 z2 F2- |"^b" F2 D2 B3 A/G/ |"^b" A2 B2 G2 F2- | %9
w: |||||San-|cta et|_ im- ma- * *|* cu- la- ta|
"^-natural" FG AB c2 B2 | c3 B AG FE | D3 D DE FG | A4 z2 F2- | F2 E2 F3 E/D/ | E2 F2 D2 C2- | %15
w: _ _ _ _ _ vir-|gi- * * * * *|* ni- tas, _ _ _|_ et|_ im- ma- * *|* cu- la- ta|
 CD EF G3 A | B2 c2 d2 _B2 | A4 z2 _B2- | B2 A4 G2 | G2 ^F2 G4 |"^b" A3 A B4 | F2 G2 d4 | %22
w: _ _ _ _ _ _|* vir- gi- ni-|tas, qui-|* bus te|lau- di- bus|ef- fe- ram|ne- sci- o,|
 z2 G2 E2 E2 | A3 G FE D2- | DE FG A4 | A4 z4 | z8 | z2 F2 D2 D2 | G3 F ED C2- | C2 F2 z2 c2 | %30
w: qui- a quem|coe- * * * *||li,||qui- a quem|coe- * * * *|* li, qui-|
 A2 A2 d3 c | BA GF ED C2- | CD EF G2 G2 | A2 B2 c4 | A4 G3 F/E/ | F3 F c4 | z8 | z4 z2 G2- | %38
w: a quem coe- *||* * * * * li|ca- pe- re|non po- * *|* te- rant||tu-|
 G2 A2 B2 c2 | d4 d3 c | B2 c2 A4 | F4 z4 | z2 C4 D2 | E2 F2 G4 | z4 z2 C2- | C2 D2 E2 F2 | G4 z4 | %47
w: * o gre- mi-|o con- tu-|li- * *|sti,|tu- o|gre- mi- o,|tu-|* o gre- mi-|o,|
 z4 F4- | F2 G2 A2 B2 | c3 B/A/ G2 A2 | B2 c3 B/A/ B2 | c4 z4 | z8 | z4 z2 D2- | D2 E2 F2 G2 | %55
w: tu-|* o gre- mi-|o, _ _ _ _|con tu- * * li-|sti,||tu-|* o gre- mi-|
 A4 D4- | D4 D4 | D8 | !fermata!G8 |] %59
w: o con-|* tu-|li-|sti.|

